X:59
M:6/8
L:1/8
Q:3/8=100
K:G
d|d>ed b2 b|c>dc a2 a|c>ec B>dB|A>BG A>FD|\
[c2C2]e e>dc|d>BG D2 F|G3-G2:|

